components/Company/logos/logo-cybozu.svg

<svg height="140" viewBox="0 0 400 140" width="400" xmlns="http://www.w3.org/2000/svg"><g fill="none" transform="translate(25 29)"><path d="m154.058333 27.475c2.45 0 4.433334.6416667 5.425 1.05l.641667.2916667 1.866667-6.5333334-.466667-.2333333c-1.633333-.7583333-4.666667-1.3416667-7.233333-1.3416667-11.9 0-20.241667 9.1-20.241667 22.1666667 0 13.5333333 7 21.5833333 18.783333 21.5833333 3.266667 0 6.475-.5833333 8.516667-1.6333333l.408333-.175-1.283333-6.1833333-.7.2333333c-2.041667.7583333-3.675 1.05-5.541667 1.05-6.941666 0-11.083333-5.6-11.083333-14.9333333 0-7.5833334 3.383333-15.3416667 10.908333-15.3416667zm32.433334 18.2c-.583334 2.1-1.166667 4.2583333-1.691667 6.3583333 0-.1166666-.058333-.2916666-.116667-.4083333-.408333-2.0416667-.933333-4.025-1.458333-6.0666667l-6.708333-24.2666666h-9.625l12.775 39.1416666c.175.4083334.175.875.175 1.3416667s-.058334.8166667-.466667 1.8666667c-.758333 1.8083333-2.333333 4.6083333-4.375 6.7666666-2.1 2.275-4.55 4.0833334-6.825 5.075l-.525.2333334 3.383333 6.7083333.525-.2333333c.816667-.2916667 5.016667-2.1 9.158334-6.475 6.066666-6.475 9.508333-16.9166667 12.483333-26.95l8.341667-27.4166667h-9.041667zm39.491666-25.025c-4.375 0-7.641666 1.5166667-10.091666 4.55v-21.7h-9.1v49.9916667c0 1.9833333-.175 4.9583333-.291667 7.35-.058333.9916666-.116667 1.8666666-.116667 2.5666666v.5833334h7.991667l.408333-4.55c1.691667 2.625 4.433334 5.25 9.683334 5.25 7.816666 0 15.691666-6.9416667 15.691666-22.4583334 0-13.125-5.6-21.5833333-14.175-21.5833333zm5.016667 21.9333333c0 5.775-1.05 15.4583334-8.05 15.4583334-2.158333 0-5.133333-1.1666667-6.825-6.9416667-.233333-.5833333-.233333-1.4583333-.233333-2.3333333v-11.55c0-.9333334 0-1.925.175-2.8.583333-3.325 3.441666-6.8835741 6.825-6.8835741 7.35-.0580926 8.108333 10.5002407 8.108333 15.0502407zm31.85-21.9333333c-12.716667 0-17.266667 11.9-17.266667 22.1083333 0 16.1583334 8.633334 21.9333334 16.741667 21.9333334 7.933333 0 17.15-5.775 17.15-21.9916667 0-16.275-8.575-22.05-16.625-22.05zm-.116667 37.625c-7 0-7.991666-9.8-7.991666-15.6333333 0-4.6666667.758333-15.5166667 7.816666-15.5166667 6.941667 0 7.7 10.85 7.7 15.5166667 0 4.725-.758333 15.6333333-7.525 15.6333333zm22.166667-30.275h17.441667c-.525.8166667-1.05 1.6333333-1.633334 2.5083333-.641666.9916667-1.283333 1.9833334-1.925 2.975l-15.691666 25.6666667-.116667.1166667v4.7833333h29.691667v-6.65h-19.133334c.466667-.8166667 1.05-1.6333333 1.633334-2.5083333.641666-.9916667 1.341666-1.9833334 1.925-2.975l15.516666-25.3166667.058334-.1166667v-5.1333333h-27.708334zm65.1 35.4083333c-.058333-1.05-.116667-2.1-.175-3.2666666-.116667-2.3333334-.291667-4.9583334-.291667-8.05v-30.7416667h-9.1v27.9416667c0 1.4583333-.116666 2.6833333-.408333 3.675-.7 2.975-3.383333 5.075-6.475 5.0166666-4.316667 0-6.066667-3.0916666-6.066667-10.7333333v-25.9h-9.1v26.8333333c0 11.2583334 4.025 16.5083334 12.716667 16.5083334 4.666667 0 8.341667-2.2166667 10.441667-4.375l.466666 3.7333333h7.991667z" fill="#a6a4a5"/><path d="m104.766667 54.95c0 12.25-9.916667 22.1666667-22.166667 22.1666667s-22.1666667-9.9166667-22.1666667-22.1666667 9.9166667-22.1666667 22.1666667-22.1666667 22.166667 9.9166667 22.166667 22.1666667zm-22.166667-8.9833333c-4.9583333 0-8.925 4.025-8.925 8.925 0 4.9583333 4.025 8.925 8.925 8.925 4.9583333.175 9.1-3.675 9.275-8.6333334.175-4.9583333-3.675-9.1-8.6333333-9.275-.2333334.0583334-.4666667.0583334-.6416667.0583334z" fill="#9dd0e0"/><path d="m124.483333 16.45c0 7.5833333-6.183333 13.7666667-13.766666 13.7666667-7.583334-.175-13.591667-6.4166667-13.4750003-14 .175-7.35000003 6.0666663-13.30000003 13.4750003-13.47500003 7.583333-.05833334 13.766666 6.125 13.766666 13.70833333zm-13.766666-5.5416667c-3.033334 0-5.541667 2.5083334-5.541667 5.5416667s2.508333 5.5416667 5.541667 5.5416667c3.033333.1166666 5.6-2.3333334 5.716666-5.3666667.116667-3.0333333-2.333333-5.6-5.366666-5.7166667-.116667 0-.233334 0-.35 0z" fill="#bcdee9"/><path d="m70.6416667 35.7c0 19.4833333-15.8083334 35.2916667-35.2916667 35.2916667s-35.35-15.8083334-35.35-35.2916667 15.8083333-35.29166667 35.35-35.29166667c19.4833333 0 35.2916667 15.80833337 35.2916667 35.29166667zm-35.35-14.2333333c-7.875 0-14.2333334 6.3583333-14.2333334 14.2333333s6.3583334 14.2333333 14.2333334 14.2333333 14.2333333-6.3583333 14.2333333-14.2333333-6.3583333-14.2333333-14.2333333-14.2333333z" fill="#63bbd3"/></g></svg>

<?xml version="1.0" encoding="UTF-8"?>
<svg width="400px" height="140px" viewBox="0 0 400 140" version="1.1" xmlns="http://www.w3.org/2000/svg" xmlns:xlink="http://www.w3.org/1999/xlink">
    <title>Artboard</title>
    <g id="Artboard" stroke="none" stroke-width="1" fill="none" fill-rule="evenodd">
        <g id="cybozu-inc-logo-vector" transform="translate(25.000000, 29.000000)" fill-rule="nonzero">
            <path d="M154.058333,27.475 C156.508333,27.475 158.491667,28.1166667 159.483333,28.525 L160.125,28.8166667 L161.991667,22.2833333 L161.525,22.05 C159.891667,21.2916667 156.858333,20.7083333 154.291667,20.7083333 C142.391667,20.7083333 134.05,29.8083333 134.05,42.875 C134.05,56.4083333 141.05,64.4583333 152.833333,64.4583333 C156.1,64.4583333 159.308333,63.875 161.35,62.825 L161.758333,62.65 L160.475,56.4666667 L159.775,56.7 C157.733333,57.4583333 156.1,57.75 154.233333,57.75 C147.291667,57.75 143.15,52.15 143.15,42.8166667 C143.15,35.2333333 146.533333,27.475 154.058333,27.475 L154.058333,27.475 Z M186.491667,45.675 C185.908333,47.775 185.325,49.9333333 184.8,52.0333333 C184.8,51.9166667 184.741667,51.7416667 184.683333,51.625 C184.275,49.5833333 183.75,47.6 183.225,45.5583333 L176.516667,21.2916667 L166.891667,21.2916667 L179.666667,60.4333333 C179.841667,60.8416667 179.841667,61.3083333 179.841667,61.775 C179.841667,62.2416667 179.783333,62.5916667 179.375,63.6416667 C178.616667,65.45 177.041667,68.25 175,70.4083333 C172.9,72.6833333 170.45,74.4916667 168.175,75.4833333 L167.65,75.7166667 L171.033333,82.425 L171.558333,82.1916667 C172.375,81.9 176.575,80.0916667 180.716667,75.7166667 C186.783333,69.2416667 190.225,58.8 193.2,48.7666667 L201.541667,21.35 L192.5,21.35 L186.491667,45.675 Z M225.983333,20.65 C221.608333,20.65 218.341667,22.1666667 215.891667,25.2 L215.891667,3.5 L206.791667,3.5 L206.791667,53.4916667 C206.791667,55.475 206.616667,58.45 206.5,60.8416667 C206.441667,61.8333333 206.383333,62.7083333 206.383333,63.4083333 L206.383333,63.9916667 L214.375,63.9916667 L214.783333,59.4416667 C216.475,62.0666667 219.216667,64.6916667 224.466667,64.6916667 C232.283333,64.6916667 240.158333,57.75 240.158333,42.2333333 C240.158333,29.1083333 234.558333,20.65 225.983333,20.65 L225.983333,20.65 Z M231,42.5833333 C231,48.3583333 229.95,58.0416667 222.95,58.0416667 C220.791667,58.0416667 217.816667,56.875 216.125,51.1 C215.891667,50.5166667 215.891667,49.6416667 215.891667,48.7666667 L215.891667,37.2166667 C215.891667,36.2833333 215.891667,35.2916667 216.066667,34.4166667 C216.65,31.0916667 219.508333,27.5330926 222.891667,27.5330926 C230.241667,27.475 231,38.0333333 231,42.5833333 Z M262.85,20.65 C250.133333,20.65 245.583333,32.55 245.583333,42.7583333 C245.583333,58.9166667 254.216667,64.6916667 262.325,64.6916667 C270.258333,64.6916667 279.475,58.9166667 279.475,42.7 C279.475,26.425 270.9,20.65 262.85,20.65 Z M262.733333,58.275 C255.733333,58.275 254.741667,48.475 254.741667,42.6416667 C254.741667,37.975 255.5,27.125 262.558333,27.125 C269.5,27.125 270.258333,37.975 270.258333,42.6416667 C270.258333,47.3666667 269.5,58.275 262.733333,58.275 Z M284.9,28 L302.341667,28 C301.816667,28.8166667 301.291667,29.6333333 300.708333,30.5083333 C300.066667,31.5 299.425,32.4916667 298.783333,33.4833333 L283.091667,59.15 L282.975,59.2666667 L282.975,64.05 L312.666667,64.05 L312.666667,57.4 L293.533333,57.4 C294,56.5833333 294.583333,55.7666667 295.166667,54.8916667 C295.808333,53.9 296.508333,52.9083333 297.091667,51.9166667 L312.608333,26.6 L312.666667,26.4833333 L312.666667,21.35 L284.958333,21.35 L284.9,28 L284.9,28 Z M350,63.4083333 C349.941667,62.3583333 349.883333,61.3083333 349.825,60.1416667 C349.708333,57.8083333 349.533333,55.1833333 349.533333,52.0916667 L349.533333,21.35 L340.433333,21.35 L340.433333,49.2916667 C340.433333,50.75 340.316667,51.975 340.025,52.9666667 C339.325,55.9416667 336.641667,58.0416667 333.55,57.9833333 C329.233333,57.9833333 327.483333,54.8916667 327.483333,47.25 L327.483333,21.35 L318.383333,21.35 L318.383333,48.1833333 C318.383333,59.4416667 322.408333,64.6916667 331.1,64.6916667 C335.766667,64.6916667 339.441667,62.475 341.541667,60.3166667 L342.008333,64.05 L350,64.05 L350,63.4083333 L350,63.4083333 Z" id="Shape" fill="#A6A4A5"></path>
            <path d="M104.766667,54.95 C104.766667,67.2 94.85,77.1166667 82.6,77.1166667 C70.35,77.1166667 60.4333333,67.2 60.4333333,54.95 C60.4333333,42.7 70.35,32.7833333 82.6,32.7833333 C94.85,32.7833333 104.766667,42.7 104.766667,54.95 C104.766667,54.95 104.766667,54.95 104.766667,54.95 Z M82.6,45.9666667 C77.6416667,45.9666667 73.675,49.9916667 73.675,54.8916667 C73.675,59.85 77.7,63.8166667 82.6,63.8166667 C87.5583333,63.9916667 91.7,60.1416667 91.875,55.1833333 C92.05,50.225 88.2,46.0833333 83.2416667,45.9083333 C83.0083333,45.9666667 82.775,45.9666667 82.6,45.9666667 Z" id="Shape" fill="#9DD0E0"></path>
            <path d="M124.483333,16.45 C124.483333,24.0333333 118.3,30.2166667 110.716667,30.2166667 L110.716667,30.2166667 C103.133333,30.0416667 97.125,23.8 97.2416667,16.2166667 C97.4166667,8.86666667 103.308333,2.91666667 110.716667,2.74166667 C118.3,2.68333333 124.483333,8.86666667 124.483333,16.45 L124.483333,16.45 Z M110.716667,10.9083333 C107.683333,10.9083333 105.175,13.4166667 105.175,16.45 C105.175,19.4833333 107.683333,21.9916667 110.716667,21.9916667 C113.75,22.1083333 116.316667,19.6583333 116.433333,16.625 C116.55,13.5916667 114.1,11.025 111.066667,10.9083333 C110.95,10.9083333 110.833333,10.9083333 110.716667,10.9083333 Z" id="Shape" fill="#BCDEE9"></path>
            <path d="M70.6416667,35.7 C70.6416667,55.1833333 54.8333333,70.9916667 35.35,70.9916667 C15.8666667,70.9916667 0,55.1833333 0,35.7 C0,16.2166667 15.8083333,0.408333333 35.35,0.408333333 C54.8333333,0.408333333 70.6416667,16.2166667 70.6416667,35.7 Z M35.2916667,21.4666667 C27.4166667,21.4666667 21.0583333,27.825 21.0583333,35.7 C21.0583333,43.575 27.4166667,49.9333333 35.2916667,49.9333333 C43.1666667,49.9333333 49.525,43.575 49.525,35.7 C49.525,27.825 43.1666667,21.4666667 35.2916667,21.4666667 L35.2916667,21.4666667 Z" id="Shape" fill="#63BBD3"></path>
        </g>
    </g>
</svg>
